web/assets/img/produtos/icone1.svg

<?xml version="1.0" encoding="UTF-8"?>
<svg xmlns="http://www.w3.org/2000/svg" xmlns:xlink="http://www.w3.org/1999/xlink" width="375pt" height="374.999991pt" viewBox="0 0 375 374.999991" version="1.2">
<defs>
<clipPath id="clip1">
  <path d="M 112.5 138 L 262.5 138 L 262.5 247.125 L 112.5 247.125 Z M 112.5 138 "/>
</clipPath>
</defs>
<g id="surface1">
<path style=" stroke:none;fill-rule:nonzero;fill:rgb(97.24884%,76.078796%,24.308777%);fill-opacity:1;" d="M 164.300781 178.6875 C 163.378906 178.886719 162.800781 179.792969 162.996094 180.714844 C 163.167969 181.511719 163.875 182.0625 164.65625 182.0625 C 164.773438 182.0625 164.898438 182.046875 165.015625 182.019531 C 166.488281 181.699219 167.953125 181.410156 169.4375 181.15625 C 170.363281 180.992188 170.984375 180.105469 170.820312 179.1875 C 170.65625 178.257812 169.753906 177.609375 168.851562 177.804688 C 167.332031 178.0625 165.816406 178.363281 164.300781 178.6875 Z M 164.300781 178.6875 "/>
<path style=" stroke:none;fill-rule:nonzero;fill:rgb(97.24884%,76.078796%,24.308777%);fill-opacity:1;" d="M 182.460938 154.078125 C 182.410156 153.140625 181.726562 152.339844 180.679688 152.464844 C 170.242188 153 159.878906 154.769531 149.878906 157.726562 C 148.972656 157.992188 148.460938 158.9375 148.726562 159.839844 C 148.941406 160.585938 149.625 161.0625 150.359375 161.0625 C 150.519531 161.0625 150.6875 161.035156 150.847656 160.988281 C 160.582031 158.105469 170.683594 156.378906 180.855469 155.859375 C 181.792969 155.824219 182.515625 155.019531 182.460938 154.078125 Z M 182.460938 154.078125 "/>
<path style=" stroke:none;fill-rule:nonzero;fill:rgb(97.24884%,76.078796%,24.308777%);fill-opacity:1;" d="M 136.332031 140.480469 C 136.523438 140.480469 136.707031 140.449219 136.894531 140.386719 C 154.570312 134.207031 173.003906 131.332031 191.738281 131.863281 C 192.609375 131.855469 193.460938 131.144531 193.488281 130.207031 C 193.515625 129.269531 192.773438 128.480469 191.832031 128.453125 C 172.714844 127.941406 153.847656 130.855469 135.78125 137.171875 C 134.886719 137.480469 134.421875 138.449219 134.730469 139.34375 C 134.972656 140.042969 135.625 140.480469 136.332031 140.480469 Z M 136.332031 140.480469 "/>
<g clip-path="url(#clip1)" clip-rule="nonzero">
<path style=" stroke:none;fill-rule:nonzero;fill:rgb(97.24884%,76.078796%,24.308777%);fill-opacity:1;" d="M 187.386719 200.082031 C 179.757812 200.082031 172.152344 201.171875 164.792969 203.21875 L 166.816406 206.183594 C 173.53125 204.417969 180.449219 203.488281 187.386719 203.488281 C 216.5 203.488281 243.222656 218.894531 257.816406 243.878906 L 188.367188 243.867188 L 149.300781 186.527344 C 151.84375 184.234375 153.472656 180.945312 153.472656 177.257812 C 153.472656 170.339844 147.851562 164.710938 140.929688 164.710938 C 138.921875 164.710938 137.042969 165.226562 135.363281 166.070312 L 117.082031 139.238281 C 116.554688 138.457031 115.488281 138.261719 114.714844 138.792969 C 113.9375 139.320312 113.738281 140.382812 114.265625 141.15625 L 132.550781 167.988281 C 130.007812 170.285156 128.375 173.574219 128.375 177.261719 C 128.375 184.179688 134.003906 189.808594 140.929688 189.808594 C 142.933594 189.808594 144.804688 189.292969 146.488281 188.453125 L 184.246094 243.875 L 117.121094 243.859375 C 124.6875 230.910156 135.609375 220.363281 148.855469 213.238281 C 151.417969 211.859375 154.050781 210.648438 156.738281 209.558594 L 154.78125 206.683594 C 152.21875 207.753906 149.695312 208.910156 147.234375 210.234375 C 132.550781 218.132812 120.613281 230.070312 112.707031 244.753906 C 112.421875 245.28125 112.4375 245.925781 112.742188 246.4375 C 113.054688 246.949219 113.609375 247.265625 114.210938 247.265625 L 260.71875 247.285156 C 260.738281 247.285156 260.765625 247.285156 260.792969 247.285156 C 261.726562 247.285156 262.496094 246.523438 262.496094 245.582031 C 262.496094 245.125 262.3125 244.710938 262.019531 244.402344 C 247.136719 217.054688 218.578125 200.082031 187.386719 200.082031 Z M 131.78125 177.261719 C 131.78125 172.222656 135.882812 168.121094 140.929688 168.121094 C 145.96875 168.121094 150.066406 172.21875 150.066406 177.261719 C 150.066406 182.304688 145.964844 186.402344 140.929688 186.402344 C 135.886719 186.398438 131.78125 182.300781 131.78125 177.261719 Z M 131.78125 177.261719 "/>
</g>
</g>
</svg>

<?xml version="1.0" encoding="UTF-8" standalone="no"?>
<svg
   xmlns:dc="http://purl.org/dc/elements/1.1/"
   xmlns:cc="http://creativecommons.org/ns#"
   xmlns:rdf="http://www.w3.org/1999/02/22-rdf-syntax-ns#"
   xmlns:svg="http://www.w3.org/2000/svg"
   xmlns="http://www.w3.org/2000/svg"
   xmlns:sodipodi="http://sodipodi.sourceforge.net/DTD/sodipodi-0.dtd"
   xmlns:inkscape="http://www.inkscape.org/namespaces/inkscape"
   width="200pt"
   height="160pt"
   viewBox="0 0 200 159.99999"
   version="1.2"
   id="svg18"
   sodipodi:docname="icone1.svg"
   inkscape:version="0.92.5 (2060ec1f9f, 2020-04-08)">
  <metadata
     id="metadata22">
    <rdf:RDF>
      <cc:Work
         rdf:about="">
        <dc:format>image/svg+xml</dc:format>
        <dc:type
           rdf:resource="http://purl.org/dc/dcmitype/StillImage" />
        <dc:title></dc:title>
      </cc:Work>
    </rdf:RDF>
  </metadata>
  <sodipodi:namedview
     pagecolor="#ffffff"
     bordercolor="#666666"
     borderopacity="1"
     objecttolerance="10"
     gridtolerance="10"
     guidetolerance="10"
     inkscape:pageopacity="0"
     inkscape:pageshadow="2"
     inkscape:window-width="1920"
     inkscape:window-height="1021"
     id="namedview20"
     showgrid="true"
     fit-margin-top="0"
     fit-margin-left="0"
     fit-margin-right="0"
     fit-margin-bottom="0"
     inkscape:zoom="1.888"
     inkscape:cx="44.086168"
     inkscape:cy="115.53025"
     inkscape:window-x="0"
     inkscape:window-y="27"
     inkscape:window-maximized="1"
     inkscape:current-layer="svg18">
    <inkscape:grid
       type="xygrid"
       id="grid14" />
  </sodipodi:namedview>
  <defs
     id="defs5">
    <clipPath
       id="clip1">
      <path
         d="m 112.5,138 h 150 v 109.125 h -150 z m 0,0"
         id="path2"
         inkscape:connector-curvature="0" />
    </clipPath>
  </defs>
  <g
     id="surface1"
     transform="translate(-86.13674,-107.58204)">
    <path
       style="fill:#f8c23d;fill-opacity:1;fill-rule:nonzero;stroke:none"
       d="m 164.30078,178.6875 c -0.92187,0.19922 -1.5,1.10547 -1.30469,2.02734 0.17188,0.79688 0.87891,1.34766 1.66016,1.34766 0.11719,0 0.24219,-0.0156 0.35937,-0.043 1.47266,-0.32031 2.9375,-0.60937 4.42188,-0.86328 0.92578,-0.16406 1.54687,-1.05078 1.38281,-1.96875 -0.16406,-0.92969 -1.0664,-1.57813 -1.96875,-1.38281 -1.51953,0.25781 -3.03515,0.55859 -4.55078,0.88281 z m 0,0"
       id="path7"
       inkscape:connector-curvature="0" />
    <path
       style="fill:#f8c23d;fill-opacity:1;fill-rule:nonzero;stroke:none"
       d="m 182.46094,154.07812 c -0.0508,-0.9375 -0.73438,-1.73828 -1.78125,-1.61328 -10.4375,0.53516 -20.80078,2.30469 -30.80078,5.26172 -0.90625,0.26563 -1.41797,1.21094 -1.15235,2.11328 0.21485,0.7461 0.89844,1.22266 1.63281,1.22266 0.16016,0 0.32813,-0.0273 0.48829,-0.0742 9.73437,-2.88281 19.83593,-4.60937 30.00781,-5.12891 0.9375,-0.0352 1.66015,-0.83984 1.60547,-1.78125 z m 0,0"
       id="path9"
       inkscape:connector-curvature="0" />
    <path
       style="fill:#f8c23d;fill-opacity:1;fill-rule:nonzero;stroke:none"
       d="m 136.33203,140.48047 c 0.19141,0 0.375,-0.0312 0.5625,-0.0937 17.67578,-6.17969 36.10938,-9.05469 54.84375,-8.52344 0.87109,-0.008 1.72266,-0.71875 1.75,-1.65625 0.0273,-0.9375 -0.71484,-1.72656 -1.65625,-1.75391 -19.11719,-0.51171 -37.98437,2.40235 -56.05078,8.71875 -0.89453,0.3086 -1.35938,1.27735 -1.05078,2.17188 0.24219,0.69922 0.89453,1.13672 1.60156,1.13672 z m 0,0"
       id="path11"
       inkscape:connector-curvature="0" />
    <g
       clip-path="url(#clip1)"
       id="g15"
       style="clip-rule:nonzero">
      <path
         style="fill:#f8c23d;fill-opacity:1;fill-rule:nonzero;stroke:none"
         d="m 187.38672,200.08203 c -7.62891,0 -15.23438,1.08984 -22.59375,3.13672 l 2.02344,2.96484 c 6.71484,-1.76562 13.63281,-2.69531 20.57031,-2.69531 29.11328,0 55.83594,15.40625 70.42969,40.39063 l -69.44922,-0.0117 -39.06641,-57.33985 c 2.54297,-2.29297 4.17188,-5.58203 4.17188,-9.26953 0,-6.91797 -5.6211,-12.54687 -12.54297,-12.54687 -2.00782,0 -3.88672,0.51562 -5.56641,1.35937 L 117.08203,139.2383 c -0.52734,-0.78125 -1.59375,-0.97656 -2.36719,-0.44531 -0.77734,0.52734 -0.97656,1.58984 -0.44921,2.36328 l 18.28515,26.83203 c -2.54297,2.29688 -4.17578,5.58594 -4.17578,9.27344 0,6.91797 5.62891,12.54687 12.55469,12.54687 2.0039,0 3.875,-0.51562 5.55859,-1.35547 l 37.75781,55.42188 -67.125,-0.0156 c 7.56641,-12.94921 18.48828,-23.49609 31.73438,-30.62109 2.5625,-1.37891 5.19531,-2.58984 7.88281,-3.67969 l -1.95703,-2.875 c -2.5625,1.07032 -5.08594,2.22657 -7.54688,3.55078 -14.68359,7.89844 -26.62109,19.83594 -34.52734,34.51954 -0.28515,0.52734 -0.26953,1.17187 0.0352,1.68359 0.3125,0.51172 0.86719,0.82812 1.46875,0.82812 l 146.50781,0.0195 c 0.0195,0 0.0469,0 0.0742,0 0.93359,0 1.70312,-0.76172 1.70312,-1.70313 0,-0.45703 -0.18359,-0.87109 -0.47656,-1.17969 -14.88281,-27.34765 -43.44141,-44.32031 -74.63281,-44.32031 z m -55.60547,-22.82031 c 0,-5.03906 4.10156,-9.14063 9.14844,-9.14063 5.03906,0 9.13672,4.09766 9.13672,9.14063 0,5.04297 -4.10157,9.14062 -9.13672,9.14062 -5.04297,-0.004 -9.14844,-4.10156 -9.14844,-9.14062 z m 0,0"
         id="path13"
         inkscape:connector-curvature="0" />
    </g>
  </g>
</svg>
